dist/img/svg/ic_pen.svg

<svg width="381" height="510" viewBox="0 0 381 510" fill="none" xmlns="http://www.w3.org/2000/svg"><path d="M171.1 1.1C80.9 11.3 11 81.6 1.1 172.2-7.9 254 38.8 354.1 135 459.5c18 19.7 45.4 46.4 49.5 48.1 8.7 3.6 12.3 1.6 32.1-17.8 65.2-63.9 114.9-132.8 141.7-196.4 25.3-60.2 29.3-113.5 12.1-163.6C347.6 63.1 291.2 14.9 222 2.9 208.6.6 183.5-.3 171.1 1.1zM207.8 86c21.9 3.6 43.2 14.9 58.9 31.3 9.3 9.7 13.9 16.6 19.8 29 16.8 35.5 12.4 76.8-11.4 108.5-42.2 55.9-126.9 55.9-169.2-.1-32.7-43.2-27.7-103.1 11.7-140.8 15.6-14.8 36.9-25.4 56.9-28.2 6.2-.8 27.2-.6 33.3.3z" fill="#3A382E"/></svg>

<svg width="381" height="510" viewBox="0 0 381 510" fill="none" xmlns="http://www.w3.org/2000/svg">
<path d="M171.1 1.1C80.8998 11.3 10.9998 81.6 1.09982 172.2C-7.90018 254 38.7998 354.1 135 459.5C153 479.2 180.4 505.9 184.5 507.6C193.2 511.2 196.8 509.2 216.6 489.8C281.8 425.9 331.5 357 358.3 293.4C383.6 233.2 387.6 179.9 370.4 129.8C347.6 63.1 291.2 14.9 222 2.9C208.6 0.600005 183.5 -0.299995 171.1 1.1ZM207.8 86C229.7 89.6 251 100.9 266.7 117.3C276 127 280.6 133.9 286.5 146.3C303.3 181.8 298.9 223.1 275.1 254.8C232.9 310.7 148.2 310.7 105.9 254.7C73.1998 211.5 78.1998 151.6 117.6 113.9C133.2 99.1 154.5 88.5 174.5 85.7C180.7 84.9 201.7 85.1 207.8 86Z" fill="#3A382E"/>
</svg>
